src/icons/javascript-map.svg

<svg viewBox="0 0 24 24" xmlns="http://www.w3.org/2000/svg">
  <path
    d="M17.778 7.74699V9.74699H19.778V19.747H9.77798V17.747H7.77798V21.747H21.778V7.74699H17.778Z"
    fill="#FFCA28"
  />
  <path
    d="M2.22198 2.253H16.358V16.39H2.22198V2.253ZM5.93598 14.064C6.25098 14.732 6.87099 15.281 7.93099 15.281C9.10899 15.281 9.91798 14.653 9.91798 13.279V8.739H8.58298V13.248C8.58298 13.923 8.30799 14.096 7.87599 14.096C7.42099 14.096 7.23199 13.782 7.01999 13.412L5.93598 14.064ZM10.633 13.923C11.025 14.693 11.819 15.281 13.059 15.281C14.316 15.281 15.259 14.63 15.259 13.428C15.259 12.321 14.622 11.826 13.491 11.339L13.161 11.198C12.588 10.954 12.345 10.79 12.345 10.397C12.345 10.075 12.588 9.824 12.981 9.824C13.358 9.824 13.609 9.989 13.837 10.397L14.866 9.714C14.434 8.96 13.821 8.669 12.981 8.669C11.795 8.669 11.033 9.423 11.033 10.42C11.033 11.504 11.669 12.015 12.627 12.423L12.957 12.564C13.57 12.831 13.931 12.996 13.931 13.452C13.931 13.829 13.578 14.103 13.028 14.103C12.376 14.103 11.999 13.766 11.716 13.295L10.633 13.923Z"
    fill="#FFCA28"
  />
</svg>

<svg viewBox="0 0 24 24" xmlns="http://www.w3.org/2000/svg">
  <g fill="#ffca28">
    <path d="M17.778 7.747v2h2v10h-10v-2h-2v4h14v-14z" />
    <path
      d="M2.222 2.253h14.136V16.39H2.222V2.253m3.714 11.811c.315.668.935 1.217 1.995 1.217 1.178 0 1.987-.628 1.987-2.002v-4.54H8.583v4.509c0 .675-.275.848-.707.848-.455 0-.644-.314-.856-.684l-1.084.652m4.697-.141c.392.77 1.186 1.358 2.426 1.358 1.257 0 2.2-.651 2.2-1.853 0-1.107-.637-1.602-1.768-2.089l-.33-.141c-.573-.244-.816-.408-.816-.801 0-.322.243-.573.636-.573.377 0 .628.165.856.573l1.029-.683c-.432-.754-1.045-1.045-1.885-1.045-1.186 0-1.948.754-1.948 1.751 0 1.084.636 1.595 1.594 2.003l.33.141c.613.267.974.432.974.888 0 .377-.353.651-.903.651-.652 0-1.029-.337-1.312-.808z"
    />
  </g>
</svg>
